X:5
T:SUENO'S STONE/ Birkhall  # 3
M:4/4
L:1/8
C:John Robertson
R:REEL
K:D
|:"A7" A | "D" d2( fd) "/A" A2 (dA) | "D" FAFD  "/A" A2 (FA) | "G"B2 (dB) "D/F#"A2 d2 | "E7"e3 f "A7" e2A2 |!
"D"defd  "/A" A2 (dA) | "D" FAFD  "/A"A2 (FA) | "G"Bcde "A7" fA e2 |1"D"d3 Ac:|2 "D"d4 "A7" defg |!
|: "D"a3  b "/A"a2 f2 | "D" df A2 "Bm" d2 ef | "Em"g3  a "/B" g2 e2 | "A7"ce A2 "Em/B" e2    "A/C#"fg|!
"D" a3  b "/A"a2 f2 | "D" df A2 "Bm" d2 ef |"Em"  gage  "A7"A2 (Bc) |1"D"d4 "A7" defg |2"D"  d4 "D"d2 :|]
